X:1
T:Lodar voi donn'ingrate
T:Jacques Arcadelt c.1500-1568
T:Lodar voi donn'ingrate
T:This work is licensed under CC0: creativecommons.org/publicdomain/zero/1.0/
T:Transcribed from 1539 Gardano edition of Arcadelt's Il primo libro di madrigali a 4 Original note values halved
T:This work is licensed under CC0: creativecommons.org/publicdomain/zero/1.0/
T:This work is licensed under CC0: creativecommons.org/publicdomain/zero/1.0/
T:This work is licensed under CC0: creativecommons.org/publicdomain/zero/1.0/
T:This work is licensed under CC0: creativecommons.org/publicdomain/zero/1.0/
T:This work is licensed under CC0: creativecommons.org/publicdomain/zero/1.0/
C:Jacques Arcadelt
C:c.1500-1568
Z:Anonymous
Z:This work is licensed under CC0: creativecommons.org/publicdomain/zero/1.0/
%%score [ 1 2 3 4 ]
L:1/8
M:4/4
K:C
V:1 treble nm="Piano" snm="Pno."
V:2 treble transpose=-12 nm="Piano" snm="Pno."
V:3 treble transpose=-12 nm="Piano" snm="Pno."
V:4 treble nm="Piano" snm="Pno."
V:1
"^Cantus" x8 |"^Instrument change" A4 A2 A2 |"^b" _B2 A4 G2 | A8 | z2 A2 A2 A2 | B2 c2 d4 | %6
w: |Lo- dar voi|don- n'in- gra-|te|per ri- por-|tar v'al cie-|
 c4 z2 c2 | c2 c2 B2 A2 | G2 G2 F2 E2- | E2 D2 E4 | z2 E2 E2 E2 | G2 G2 D2 D2 | F8 | E2 E2 D2 C2 | %14
w: lo sa-|ria far fred- do'l|cal- d'e cal- do'l|_ ge- lo|pe- ro non|vi sde- gna- te|se|po- c'e la mer-|
 B,4 A,2 A2 | c2 c2 B2 B2 | A2 G2 A2 B2- | BA G4"^#" ^F2 | G4 z2 G2 | G2 G2 G2 G2 | G4 G4 | z8 | %22
w: ce- de che|mi- no- r'e del|vos- tr'a- mor la|_ _ fe- *|de il|ciel don- n'a voi|die- de||
 z8 | z2 G2 A4 | G2 F4 E2 | D4 C2 G2 | G2 G2 G2 G2 | G2 G2 F2 E2- | E2 D2 E4 | z2 E2 E2 E2 | %30
w: |li- be-|ra- men- t'in|do- no il|fal- s'a- mor ma|non gia'l bel- lo'l|_ buo- no|cie- chi gli'am-|
 G2 G2 D2 D2 | F3 G A4- | A2 A2 G2 F2 | E4 F4 | z8 | z4 A4 | A2 A2 B2 d2 | c3 B A3 G | F4 E4 | %39
w: an- ti so- no'et|e _ _|_ piu cie- c'a-|mo- re||a|dar- v'in pre- d'un|al- m'o dar- v'un|co- re,|
 z4 A4 | A2 A2 B2 d2 | c6 B2 | A2 G2 F4 | E8 |] %44
w: a|dar- v'in pre- d'un|al- m'o|dar- v'un co-|re.|
V:2
"^Alto" x8 |"^Instrument change" F,4 E,2 F,2 | G,2 C,2 D,4 | E,2 C,2 D,2 D,2 | F,3 E, D,2 C,2 | %5
w: |Lo- dar voi|don- n'in- gra-|te per ri- por-|tar _ _ _|
 B,,2 A,,4"^#" ^G,,2 | A,,4 z2 G,2 | G,2 G,2 F,2 F,2 | E,2 E,2 D,2 C,2- | C,B,, A,,4 G,,2 | %10
w: v'al cie- *|lo sa-|ria far fred- do'l|cal- d'e cal- do'l|_ _ ge- lo|
 z2 B,,2 C,4 | z2 B,,2 B,,2 B,,2 | D,2 D,2 A,,A,, D,2 | C,2 C,2 B,,2 A,,2- | %14
w: pe- ro,|pe- ro non|mi sde- gna- te se|po- c'e la mer-|
 A,,2"^#" ^G,,2 A,,2 E,2 | A,2 A,2 G,2 G,2 | F,2 E,2 D,2 D,2- | D,2 C,2 D,4 | B,,2 D,4 E,2 | %19
w: * ce- de che|mi- no- r'e del|vos- tr'a- mor la|_ _ fe-|de il ciel|
 E,2 D,3 C, C,2- | C,2 B,,2 C,2 B,,2 | C,4 B,,2 A,,2- | A,,2 G,,4 F,,2 | G,,2 E,2 F,4 | %24
w: don- n'a _ voi-|* die- de li-|ber- a- me-|* t'in do-|no li- be-|
 E,2 D,4 C,2- | C,2 B,,2 C,2 E,2 | E,2 E,2 D,2 D,2 | D,2 D,2 C,2 B,,2 | A,,4 G,,2 G,,2 | %29
w: ra- men- t'in|_ do- no il|fal- s'a- mor ma|non gia'l bel- lo'l|buo- no cie-|
 G,,2 G,,2 A,,2 G,,2 | z2 B,,2 B,,2 B,,2 | D,2 D,2 A,,2 A,,2 | z F, F,F, E,2 D,2- | %33
w: chi gli'am- an- ti|cie- chi gli'am-|an- ti so- no|et e piu cie- c'a-|
 D,2"^#" ^C,2 D,2 D,2 | D,2 F,2 E,2 D,2 | F,3 E, D,2 C,2- | C,B,, A,,4"^#" ^G,,2 | %37
w: * mo- re a|dar- v'in pre- d'un|al- m'o dar- v'un|_ _ co- *|
 A,,2 A,,2 A,,2 A,,2 | D,2 D,2 C,2 B,,2 | D,6 C,2- | C,B,, A,,4"^#" ^G,,2 | A,,2 E,2 F,4- | %42
w: re, a dar- v'in|pre- d'un al- m'o|dar- v'un|_ _ co- *|re, o dar-|
 F,2 E,2 D,4 |"^#" ^C,8 |] %44
w: * v'un co-|re.|
V:3
"^Tenor" x8 |"^Instrument change" D,4 C,2 C,2 | D,2 F,2 F,2 E,D, | C,2 E,2 F,3 E, | %4
w: |Lo- dar voi|don- n'in- gra- * *|te per ri- por-|
 D,3 C,/B,,/ A,,3 G,, | F,,2 E,,2 D,,4 | E,,4 z2 E,2 | E,2 E,2 D,3 C, | B,,2 C,2 A,,2 G,,2 | %9
w: tar _ _ _ _|_ v'al cie-|lo sa-|ria far fred- do'l|cal- d'e cal- do'l|
 A,,4 B,,2 B,,2 | B,,2 G,,2 A,,2 G,,2- | G,,F,,G,,A,, B,,C, D,2- | D,2 A,,2 z2 A,,2 | %13
w: ge- lo pe-|ro non vi sde-|* * * * * * gna-|* te se|
 A,,2 E,,2 G,,2 A,,2 | E,,2 E,,2 z2 C,2 | E,2 E,2 E,2 D,2 | C,2 B,,2 A,,2 G,,2- | %17
w: po- c'e la mer-|ce- de che|mi- no- r'e del|vos- tr'a- mor la|
 G,,A,,B,,G,, A,,4 | G,,2 B,,4 C,2- | C,2 D,2 E,2 C,2 | D,4 E,2 E,2 | F,4 E,2 D,2- | D,2 C,4 B,,2 | %23
w: _ _ _ _ fe-|de il ciel|_ don- n'a voi|die- de li-|ber- a- me-|* t'in do-|
 C,2 C,2 F,,G,,A,,B,, | C,2 D,2 B,,2 C,2 | G,,2 G,,2 z2 C,2 | C,2 C,2 B,,2 B,,2 | %27
w: no li- be- * * *|* ra- men- t'in|do- no il|fal- s'a- mor ma|
 B,,2 B,,2 A,,2 G,,2 | A,,4 B,,2 B,,2 | B,,2 B,,2 C,2 B,,2 | G,,3 A,, B,,C, D,2- | %31
w: non gia'l bel- lo'l|buo- no cie-|chi gli'am- an- ti|so- * * * *|
 D,C, A,,2- A,,B,, C,2 | A,,4 z4 | z2 A,,2 A,,2 A,,2 | B,,2 D,2 C,2 B,,2 | A,,6 G,,2 | %36
w: |no|a dar- v'in|pre- d'un al- m'o|dar- v'un|
 F,,2 E,,2 D,,4 | z2 E,,2 F,,3 G,, | A,,2 F,,2 G,,2 E,,2 | A,,6 G,,2 | F,,2 E,,2 D,,4 | %41
w: co- * re,|a dar- v'in|pre- d'un al- m'o|dar- v'un|co- * *|
 E,,2 A,,2 A,,4- | A,,2 A,,2 A,,4 | A,,8 |] %44
w: re, o dar-|* v'un co-|re.|
V:4
"^Bass" x8 |"^Instrument change" D,4 A,2 A,2 | G,2 F,2"^b" _B,4 | A,4 z2 D,2 | D,2 D,2 F,3 E, | %5
w: |Lo- dar voi|don- n'in- gra-|te per|ri- por- tar _|
 D,2 C,2 B,,4 | A,,4 z2 C,2 | C,2 C,2 D,2 D,2 | E,2 C,2 D,2 E,2 | F,4 E,4- | E,4 z2 C,2 | %11
w: _ v'al cie-|lo sa-|ria far fred- do'l|cal- d'e cal- do'l|ge- lo|_ pe-|
 E,3 F, G,2 G,2 | D,4 D,4 | z8 | z4 z2 A,2 | A,2 A,2 E,2 G,2 | A,2 E,2 F,2 G,2 | E,4 D,4 | %18
w: ro non vi sde-|gna- te||che|mi- no- r'e del|vos- tr'a- mor la|fe- de|
 z2 G,,4 C,2- | C,2 B,,2 C,2 C,2 | G,4 C,2 G,2 | A,4 G,2 F,2- | F,2 E,2 D,4 | C,4 z4 | z8 | %25
w: il ciel|_ don- n'a voi|die- de li-|ber- a- men-|* t'in do-|no||
 z4 z2 C,2 | C,2 C,2 G,2 G,2 | G,2 G,2 A,2 E,2 | F,4 E,4- | E,4 z2 E,2 | E,2 E,2 G,2 G,2 | %31
w: il|fal- s'a- mor ma|non gia'l bel- lo'l|buo- no|_ cie-|chi gli'am- an- ti|
 D,2 D,2 z2 F,2 | F,2 F,2 G,2 G,2 | A,4 D,2 D,2 | D,2 D,2 E,2 G,2 | F,6 E,2 | D,2 C,2 B,,4 | %37
w: so- no et|e piu cie- c'a-|mo- re a|dar- v'in pre- d'un|al- m'o|dar- v'un co-|
 A,,4 z2 D,2 | D,2 D,2 E,2 G,2 | F,6 E,2 | D,2 C,2 B,,4 | A,,4 F,4 | F,2 C,2 D,4 | A,,8 |] %44
w: re, a|dar- v'in pre- d'un|al- m'o|dar- v'un co-|ro, o|dar- v'un co-|re.|

